X:107
T:Maryann's Fancy THO3.107
O:England;London
M:C
L:1/8
Z:vmp. Peter Dunk 2011.from a transcription by Fynn Titford-Mock 2006-9
B:Thompson's Compleat Collection of 200 Favourite Country Dances Vol. III.1765-72
Q:1/4=140
K:D
d2 fd gecA|dfed cBAG|FAdc Bc d2|efgf ecBA|d2 fd gecA|
dfed cBAG|FAdc Bbag|fedc {c2}d4::d2 fd cecA|BdBA {A}^G2 FE|
F^GAB cdec| dBA^G A2 [A2A,2]|d2 fd gecA|dfed cBAG|FAdc Bbag|fedc {c2}d4:|

